X:1
T:The Fives
T:“The Fives”
T: Music by HERSAL THOMAS and GEO. W. THOMAS
T:Words by GEO. W. THOMAS
T:Writer of   Muscle Shoals Blues etc.
T:Public Domain
T:Public Domain
T:Public Domain
T:Public Domain
C:Hersal Thomas and George W Thomas
Z:George W Thomas
Z:Public Domain
%%score 1 { 2 | 3 }
L:1/8
Q:1/4=120
M:2/2
K:C
V:1 treble nm="Voice"
V:2 treble nm="Piano"
V:3 bass 
V:1
"^Moderato" z8 | z8 | z8 | z8 | z8 | z8 | z8 | z8 | z8 | z8 |: z8 | z8 :| %12
w: ||||||||||||
w: ||||||||||||
w: ||||||||||||
"^VOICE"[Q:1/4=110]"^slow" c2 _B2 G2 C2 | c2 _B2 G2 E2 | [Cc-]8 | c4 z4 | c2 A2 F2 A2 | %17
w: Old Five read- y|to take me a-|way,|_|Old Five read- y|
w: Here’s my tick- et|it’s long as my|arms,|_|Here’s my tick- et|
w: |||||
 c2 _B2 G2 E2 | [Cc]8- | [Cc]4 z2 G2 | G2 F2 D2 G2 | G2 F2 D2 G2 | [Cc]8- | [Cc]4 z4 | %24
w: to take me a-|way,|_ I’m|leav- ing town but|not leav- ing to|stay,|_|
w: it’s long as my|arms,|_ I’ll|take a trip and|see the folks at|home,|_|
w: |||||||
 c2 _B2 G2 C2 | c2 _B2 G2 E2 | [Cc]8 | z8 | c2 A2 F2 A2 | c2 _B2 G2 E2 | c8- | c4 z4 | %32
w: My trunk packed now|I’m sure on my|way||My trunk packed now|I’m sure on my|way,|_|
w: I have trav- el’d|this world thru and|thru||I have trav- el’d|this world thru and|thru,|_|
w: ||||||||
 G2 F2 D2 G2 | G2 F2 D2 G2 | [Cc-]8 | c4 z4 |: %36
w: These few words to|you I’m goin’ to|say,|_|
w: These few words a-|gain I’ll say to|you,|_|
w: ||||
[M:4/4][Q:1/4=105]"^CHORUS: slower" e e _e d c =e _e d | z c- c G _B G3 | A A ^G =G F A ^G =G | %39
w: Here comes num- ber 5 she makes a|mile * a min- ute|Gee, she run so fast this morn- ing|
w: |||
w: |||
 F F- F C _E C3 | z8 | z8 | G8 | ^F G3 F G _E D | ^d e d e (3(ce) c G3/2 E/ | c8- | c4 z4 | %47
w: she broke * the lim- it|||Oh!|good- ness how that west bound|what I mean that West _ bound train does|Run|_|
w: ||||||||
w: ||||||||
 e e _e d c =e _e d | c c- c G (_B G3) | A A ^G =G F A ^G =G | F F- F C (_E C3) | z8 | z8 | G8 | %54
w: Fire- man said this morn- ing to his|en- gi- * * neer _|Five P. M. we due in Fris- co|let’s leave _ from here _|||Un|
w: En- gi- neer looked at his watch and|said if _ I’m a- live|We’ll be in Fris- co to- mor- row|morn sure _ at Five _||||
w: Fire- man turned on wa- ter and he|shev- el _ in some coal|5 o- clock this morn ing he got|the en- * gi- neer told||||
 ^F G3 F G _E D | ^d e d e (3(ce) c G3/2 E/ | C8- |1 C4 z4 :|2 C6 z2!fine! |] %59
w: good- ness gee I’ve got the|Fris- co I mean Fris- * co eve- ning|Fives|_|Fives|
w: |||||
w: |||||
V:2
!mf!{d^d} [eg][eg][_e_g][=df] [c=e][e=g][_e_g][df] | [ce][ce]- [ce]G [_Bd] G3 | %2
{G^G} [Ac][Ac][^GB][=G_B] [FA][Ac][^G=B][=G_B] | [FA][FA]- [FA]C [_EG] C3 |"^trill" !///![DFG]8 | %5
 ([^F^f] [Gg]3 [Ff][Gg][_E_e][Dd]) | [_ea]2 [=eg]2 [_EA]2 ([=EG]2 | %7
 [B,=FA][B,FG][B,FA][B,FG] [CEc]2) z2 | ([^d^f][eg][df][eg] (3cec G>E) | %9
 [EGc]>[FG] (3[B,FA][B,FG][B,FA] [CEc]2 z2 |:!p! [c_bc']2 [_Bgb]2 [Geg]2 [EGc]2 | %11
 [C_E][C^F]Ac [B,D][B,D=F]B[B,FG] :|!mf! [c_bc']2 [_Bgb]2 [Geg]2 [EGc]2 | %13
 [c_bc']2 [_Bgb]2 [Geg]2 [EGe]2 | c^cd^d ec'- c'2 | (3(_bc'b (3gbg (3ege c2) | %16
 [cac']2 [Afa]2 [Fdf]2 [Afa]2 | [cac']2 [_Bg_b]2 [Geg]2 [Ece]2 | [EGc]2 ^DE [EGAc]2 DE | %19
 [EGAc]2 ^DE [EGAc]2 DE | [Geg]2 [Fdf]2 [DBd]2 [DFG]2 | [Geg]2 [Fdf]2 [DBd]2 [DFG]2 | %22
 [CEGc]2 [G,CEG]2 [A,C_G]2 [G,B,F]2 | [G,CE]G[_B,EA][B,EG] [=B,FA][B,FG][B,FA][B,FG] | %24
 [c_bc']2 [_Bgb]2 [Geg]2 [EGc]2 | [c_bc']2 [_Bgb]2 [Geg]2 [EGe]2 | %26
 z ([^d'^f'][e'g']c' [ac']g[^d^f][eg] | c[Ac]G[^D^F] [EG]) z z2 | [cac']2 [Afa]2 [Fdf]2 [Afa]2 | %29
 [cac']2 [_Bg_b]2 [Geg]2 [Ece]2 | [EGc]2 ^DE [EGAc]2 DE | [EGAc]2 ^DE [EGAc]2 DE | %32
 [Geg]2 [Fdf]2 [DBd]2 [DFG]2 | [Geg]2 [Fdf]2 [DBd]2 [DFG]2 | [CEGc]2 [G,CEG]2 [A,C_G]2 [G,B,F]2 | %35
 [G,CE]G[_B,EA][B,EG] [=B,FA][B,FG][B,FA][B,FG] |: %36
[M:4/4]!p!!mf!{d^d} [eg][eg][_e_g][=df] [c=e][e=g][_e_g][df] | [ce][ce]- [ce]G [_Bd] G3 | %38
{G^G} [Ac][Ac][^GB][=G_B] [FA][Ac][^G=B][=G_B] | [FA][FA]- [FA]C [_EG] C3 | %40
!p!{D^D} ([EG][EG][_E_G][=DF] [C=E][E=G][_E_G][DF] | [CE][CE]- [CE]G, [_B,D] G,3 | %42
"^trill" !///![DFG]8) | [^F^f] [Gg]3 [Ff][Gg][_E_e][Dd] | [^d^f][eg][df][eg] (3cec G>E | %45
 [CEGc][CEGc]- [CEGc]2 [_E_G][=E=G][_E_G][=E=G] | [CEc]8 | %47
{d^d} [eg][eg][_e_g][=df] [c=e][e=g][_e_g][df] | [ce][ce]- [ce]G [_Bd] G3 | %49
{G^G} [Ac][Ac][^GB][=G_B] [FA][Ac][^G=B][=G_B] | [FA][FA]- [FA]C [_EG] C3 | %51
!p!{D^D} ([EG][EG][_E_G][=DF] [C=E][E=G][_E_G][DF] | [CE][CE]- [CE]G, [_B,D] G,3) | %53
"^trill" !///![DFG]8 | [^F^f] [Gg]3 [Ff][Gg][_E_e][Dd] | [^d^f][eg][df][eg] (3cec G>E | %56
 [CEGc][CEGc]- [CEGc]2 [_E_G][=E=G][_E_G][=E=G] |1 CG[_B,EA][B,EG] [=B,FA][B,FG][B,FA][B,FG] :|2 %58
 [EGc]>[FG] (3[B,FA][B,FG][B,FA] [CEc]2 z2 |] %59
V:3
 [C,G,][C,G,][C,A,][C,_A,] [C,G,][C,G,][C,=A,][C,_A,] | %1
 [C,G,][C,G,][C,G,][C,G,] [C,G,][C,G,][C,G,][C,G,] | %2
 [F,,C,][F,,C,][F,,D,][F,,_D,] [F,,C,][F,,C,][F,,=D,][F,,_D,] | %3
 [F,,C,][F,,C,][F,,C,][F,,C,] [F,,C,][F,,C,][F,,C,][F,,C,] | D,,D,F,,F, G,,G,F,,F, | %5
 B,,B,G,,G, F,,F,D,,D, |"^Whistle"[I:staff -1] ^F2 G2[I:staff +1] ^F,2 G,2 | %7
 [D,,G,,D,]2 [D,,G,,D,]2 [C,,C,]2 z2 | ([C,C]2 [G,CE]2 (3EGE C>G,) | %9
 [E,,E,]2 [D,,D,]2 [C,,C,]2 z2 |:"^Vamp" [C,C]2 [_B,CE]2 [G,,G,]2 [G,B,C]2 | ^F,A,CA, =F,A,G,G, :| %12
 [C,C]2 [_B,CE]2 [G,,G,]2 [G,B,C]2 | [C,C]2 [_B,CE]2 [G,,G,]2 [E,G,C]2 | %14
 [E,,E,]2 [C,E,_B,]2 [C,,C,]2 [C,E,B,]2 | [G,,G,]2 [G,_B,C]2 [C,,C,]2 [G,B,C]2 | %16
 !arpeggio![F,,C,A,]2 [F,A,C]2 [C,,C,]2 [F,A,C]2 | C,C_B,,_B, G,,G,E,,E, | C,,C,E,,E, G,,G,A,,A, | %19
 C,CA,,A, G,,G,E,,E, | !arpeggio![G,,D,B,]2 [F,G,B,]2 [D,,D,]2 [F,G,B,]2 | %21
 !arpeggio![G,,D,B,]2 [F,G,B,]2 [D,,D,]2 [F,G,B,]2 | [C,,C,]2 [E,,E,]2 [_E,,_E,]2 [D,,D,]2 | %23
 [C,,C,]2 [^C,,^C,]2 [D,,D,]2 [G,,,G,,]2 | [C,C]2 [G,_B,C]2 [G,,G,]2 [G,B,C]2 | %25
 [C,C]2 [_B,CE]2 [G,,G,]2 [E,G,C]2 | [C,,C,]2 z2 z4 | z4 z ([C,,C,][D,,D,][E,,E,]) | %28
 [F,,=F,]2 [F,A,C]2 [C,,C,]2 [F,A,C]2 | [C,C]2 [_B,CE]2 [G,,G,]2 [E,G,C]2 | C,,C,E,,E, G,,G,A,,A, | %31
 C,CA,,A, G,,G,E,,E, | !arpeggio![G,,D,B,]2 [F,G,B,]2 [D,,D,]2 [F,G,B,]2 | %33
 !arpeggio![G,,D,B,]2 [F,G,B,]2 [D,,D,]2 [F,G,B,]2 | [C,,C,]2 [E,,E,]2 [_E,,_E,]2 [G,,,G,,]2 | %35
 [C,,C,]2 [^C,,^C,]2 [D,,D,]2 [G,,,G,,]2 |: %36
[M:4/4] [C,G,][C,G,][C,A,][C,_A,] [C,G,][C,G,][C,=A,][C,_A,] | %37
 [C,G,][C,G,][C,G,][C,G,] [C,G,][C,G,][C,G,][C,G,] | %38
 [F,,C,][F,,C,][F,,D,][F,,_D,] [F,,C,][F,,C,][F,,=D,][F,,_D,] | %39
 [F,,C,][F,,C,][F,,C,][F,,C,] [F,,C,][F,,C,][F,,C,][F,,C,] | %40
 [C,,G,,][C,,G,,][C,,A,,][C,,_A,,] [C,,G,,][C,,G,,][C,,=A,,][C,,_A,,] | %41
 [C,,G,,][C,,G,,][C,,G,,][C,,G,,] [C,,G,,][C,,G,,][C,,G,,][C,,G,,] | D,,D,F,,F, G,,G,F,,F, | %43
 B,,B,G,,G, F,,F,D,,D, | [C,,C,]2 z2 z4 | %45
 [C,,G,,][C,,G,,][C,,A,,][C,,_A,,] [C,,G,,][C,,G,,][C,,=A,,][C,,_A,,] | %46
 [C,,G,,][C,,G,,][C,,A,,][C,,_A,,] [C,,G,,][C,,G,,][C,,=A,,][C,,_A,,] | %47
 [C,G,][C,G,][C,A,][C,_A,] [C,G,][C,G,][C,=A,][C,_A,] | %48
 [C,G,][C,G,][C,G,][C,G,] [C,G,][C,G,][C,G,][C,G,] | %49
 [F,,C,][F,,C,][F,,D,][F,,_D,] [F,,C,][F,,C,][F,,=D,][F,,_D,] | %50
 [F,,C,][F,,C,][F,,C,][F,,C,] [F,,C,][F,,C,][F,,C,][F,,C,] | %51
 [C,,G,,][C,,G,,][C,,A,,][C,,_A,,] [C,,G,,][C,,G,,][C,,=A,,][C,,_A,,] | %52
 [C,,G,,][C,,G,,][C,,G,,][C,,G,,] [C,,G,,][C,,G,,][C,,G,,][C,,G,,] | D,,D,F,,F, G,,G,F,,F, | %54
 B,,B,G,,G, F,,F,D,,D, | [C,,C,]2 z2 z4 | %56
 [C,,G,,][C,,G,,][C,,A,,][C,,_A,,] [C,,G,,][C,,G,,][C,,=A,,][C,,_A,,] |1 %57
 [C,,C,]2 [^C,,^C,]2 [D,,D,]2 G,,2 :|2 [E,,E,]2 [D,,D,]2 [C,,C,]2 z2 |] %59

